!!!!SEGMENT: pl-kk--kk-i-7--053-004_goudimel-claude--missa-de-sanctis-martyribus-agnus-dei.krn
!!!cenid: 16xx:878
!!!COM: Goudimel, Claude
!!!COM-rismid: pe387526
!!!CDT: ~1514-1572/08
!!!CNT: French
!!!OPR: Missa de Sanctis Martyribus
!!!OTL: Agnus Dei
!!!OMV: 004
!!!PDT:
!!!AGN: Sacred; Mass
!!!SMS-siglum: PL-Kk
!!!SMS-shelfmark: Kk.I.7
!!!SMS-shelfwork: 053-004 M
!!!SMS-variant:
!!!SMS-altvar:
!!!NIFC-rismid: 300258130
!!!URL-scan: http://repozytorium.nifc.pl/skany/pl-kk-nut--i-7
!!!ONB-nifc: UWAGA: C (skan 0051, s.95), A (0135, s.90), T (0211, s.85), B (0299, s.84). Części Mszy: 1. Kyrie, 2. Et in terra, 3. Sanctus, 4. Agnus Dei. "Agnus II" rozpisane na 5 głosów. Głos dodatkowy rozpisany w księdze C na stronie 95.
!!!key:
**kern	**text	**kern	**text	**kern	**text	**kern	**text	**kern	**text
*part5	*part5	*part4	*part4	*part3	*part3	*part2	*part2	*part1	*part1
*staff5	*staff5	*staff4	*staff4	*staff3	*staff3	*staff2	*staff2	*staff1	*staff1
*Ibass	*	*Itenor	*	*Ialto	*	*Ivox	*	*Ivox	*
*I"BASSVS.	*	*I"TENOR.	*	*I"ALTVS.	*	*I"[CANTVS 2]	*	*I"CANTVS.	*
*I'B	*	*I'T	*	*I'A	*	*I'[C 2]	*	*I'S	*
*clefF4	*	*clefC4	*	*clefC3	*	*clefC1	*	*clefC1	*
*k[b-]	*	*k[b-]	*	*k[b-]	*	*k[b-]	*	*k[b-]	*
*F:	*	*F:	*	*F:	*	*F:	*	*F:	*
*M2/1	*	*M2/1	*	*M2/1	*	*M2/1	*	*M2/1	*
*met(C|)	*	*met(C|)	*	*met(C|)	*	*met(C|)	*	*met(C|)	*
=1-	=1-	=1-	=1-	=1-	=1-	=1-	=1-	=1-	=1-
!LO:TX:t=P:problem=znaki BB- B-	!	!LO:TX:t=P:problem=inicjał A przed kluczem	!	!	!	!	!	!	!
00r	.	0G	A-	1rg	.	0ryy	.	00r	.
!	!	!	!	!LO:TX:t=P:problem=inicjał A przed kluczem	!	!	!	!	!
.	.	.	.	0d	A-	.	.	.	.
=2-	=2-	=2-	=2-	=2-	=2-	=2-	=2-	=2-	=2-
.	.	2.Fn/	-gnus	.	.	0ryy	.	.	.
.	.	4E/	.	.	.	.	.	.	.
.	.	4F/	.	2.c/	-gnus	.	.	.	.
.	.	4G/	.	.	.	.	.	.	.
.	.	1A\	De-	.	.	.	.	.	.
.	.	.	.	4B-/	.	.	.	.	.
=3-	=3-	=3-	=3-	=3-	=3-	=3-	=3-	=3-	=3-
0r	.	.	.	4c\	De-	0ryy	.	1r	.
.	.	.	.	4d\	.	.	.	.	.
*	*	*	*	*2\right	*	*	*	*	*
.	.	2.G/	.	2.e\	.	.	.	.	.
!	!	!	!	!	!	!	!	!LO:TX:a:t=2	!
!	!	!	!	!	!	!	!	!LO:TX:t=P:problem=inicjał A przed kluczem	!
.	.	.	.	.	.	.	.	0g	A-
.	.	4F/	.	4d\	.	.	.	.	.
.	.	4E/	.	1d\	.	.	.	.	.
!	!	!LO:TX:t=P:problem=kreska pseudotaktowa	!	!	!	!	!	!	!
.	.	4D/	.	.	.	.	.	.	.
=4-	=4-	=4-	=4-	=4-	=4-	=4-	=4-	=4-	=4-
!LO:TX:t=P:problem=kreska pseudotaktowa	!	!	!	!	!	!	!	!	!
1r	.	1E	.	.	.	0ryy	.	.	.
.	.	.	.	2c\	.	.	.	.	.
!	!	!	!	!LO:TX:t=P:problem=kreska pseudotaktowa	!	!	!	!	!
2rC	.	4D/	.	1d	-i	.	.	2.fn/	-gnus
.	.	4E/	.	.	.	.	.	.	.
!LO:TX:t=P:problem=inicjał A przed kluczem	!	!	!	!	!	!	!	!	!
1D\	A-	4F/	.	.	.	.	.	.	.
.	.	4G/	.	.	.	.	.	4e/	.
=5-	=5-	=5-	=5-	=5-	=5-	=5-	=5-	=5-	=5-
.	.	4A\	.	0r	.	0ryy	.	4f/	.
.	.	4B-\	.	.	.	.	.	4g/	.
2C/	-gnus	2.c\	.	.	.	.	.	1a\	De-
1E-X	A-	.	.	.	.	.	.	.	.
.	.	4B-\	.	.	.	.	.	.	.
.	.	4B-\	.	.	.	.	.	1g\	.
.	.	8A\L	.	.	.	.	.	.	.
.	.	8G\J	.	.	.	.	.	.	.
=6-	=6-	=6-	=6-	=6-	=6-	=6-	=6-	=6-	=6-
*2\right	*	*	*	*	*	*	*	*	*
2.D\	.	1A	.	2r	.	0ryy	.	.	.
*	*	*	*	*	*ij	*	*	*	*
.	.	.	.	1d\	A-	.	.	2f/	.
!LO:TX:t=P:problem=kreska pseudotaktowa	!	!	!	!	!	!	!	!	!
4C/	.	.	.	.	.	.	.	.	.
!	!	!LO:TX:t=P:problem=kreska pseudotaktowa	!	!	!	!	!	!LO:TX:t=P:problem=kreska pseudotaktowa	!
2BB-/	.	0G	-i,	.	.	.	.	1g	-i
2.C/	.	.	.	2c\	-gnus	.	.	.	.
=7-	=7-	=7-	=7-	=7-	=7-	=7-	=7-	=7-	=7-
.	.	.	.	2e\	De-	0ryy	.	2r	.
4BB-/	.	.	.	.	.	.	.	.	.
*	*	*	*	*	*	*	*	*2\right	*
!LO:TX:t=P:problem=kreska pseudotaktowa	!	!	!	!	!	!	!	!	!
2GG/	-gnus	.	.	2d\	-i	.	.	2g\	A-
*	*	*	*	*	*Xij	*	*	*	*
2.D\	De-	0r	.	2r	.	.	.	2f/	.
.	.	.	.	2d\	A-	.	.	1a\	-gn(us)
4Eny\	.	.	.	.	.	.	.	.	.
=8-	=8-	=8-	=8-	=8-	=8-	=8-	=8-	=8-	=8-
2F\	.	.	.	2c\	.	0ryy	.	.	.
2G\	.	.	.	4B-/	-gnus	.	.	2.g\	De-
.	.	.	.	4c/	.	.	.	.	.
*	*	*	*ij	*	*	*	*	*	*
!LO:TX:t=P:problem=kreska pseudotaktowa	!	!	!	!	!	!	!	!	!
1D	-i	0A	A-	4d\	.	.	.	.	.
.	.	.	.	4e\	.	.	.	4f/	.
.	.	.	.	2.d\	De-	.	.	4f/	.
.	.	.	.	.	.	.	.	8e/L	.
.	.	.	.	.	.	.	.	8d/J	.
=9-	=9-	=9-	=9-	=9-	=9-	=9-	=9-	=9-	=9-
1rA	.	.	.	.	.	0ryy	.	1e	.
.	.	.	.	4c\	.	.	.	.	.
.	.	.	.	4c\	.	.	.	.	.
.	.	.	.	8d\L	.	.	.	.	.
.	.	.	.	8e\J	.	.	.	.	.
2r	.	1F	-gnus	1f	.	.	.	2d/	.
*	*ij	*	*	*	*	*	*	*	*
2D\	A-	.	.	.	.	.	.	1a\	.
=10-	=10-	=10-	=10-	=10-	=10-	=10-	=10-	=10-	=10-
!	!	!	!	!LO:TX:t=P:problem=kreska pseudotaktowa	!	!	!	!	!
2BB-/	.	1B-	De-	1d	-i	0ryy	.	.	.
2GG/	-gnus	.	.	.	.	.	.	1g\	.
!	!	!LO:TX:t=P:problem=kreska pseudotaktowa	!	!	!	!	!	!	!
1D	De-	1A	-i	2rF	.	.	.	.	.
*	*	*	*Xij	*	*	*	*	*	*
!	!	!	!	!	!	!	!	!LO:TX:t=P:problem=kreska pseudotaktowa	!
.	.	.	.	2F/	A-	.	.	2f/	.
=11-	=11-	=11-	=11-	=11-	=11-	=11-	=11-	=11-	=11-
2C/	.	2rF	.	2G/	.	0ryy	.	2e/	.
2BB-,/	-i	2F/	Qui	2.B-/	-gnus	.	.	1d/	.
1E-X	De-	2G/	tol-	.	.	.	.	.	.
.	.	.	.	4A/	.	.	.	.	.
.	.	2G/	-lis	1G/	De-	.	.	2c/	.
=12-	=12-	=12-	=12-	=12-	=12-	=12-	=12-	=12-	=12-
*	*	*2\right	*	*	*	*	*	*	*
!	!	!	!	!	!	!	!	!LO:TX:t=P:problem=kreska pseudotaktowa	!
1D	-i	2B-\	pec-	.	.	0ryy	.	0d	-i,
*	*Xij	*	*	*	*	*	*	*	*
!	!	!	!	!LO:TX:t=P:problem=kreska pseudotaktowa	!	!	!	!	!
.	.	2A\	-ca-	2F/	.	.	.	.	.
2r	.	4G/	-ta	4B-/	.	.	.	.	.
.	.	4F/	.	4A/	.	.	.	.	.
2G\	Qui	4E/	.	1d\	.	.	.	.	.
.	.	4D/	.	.	.	.	.	.	.
=13-	=13-	=13-	=13-	=13-	=13-	=13-	=13-	=13-	=13-
2G\	tol-	2E/	.	.	.	0ryy	.	2r	.
!LO:TX:t=P:problem=kreska pseudotaktowa	!	!	!	!	!	!	!	!	!
2G\	-lis	2E/	mun-	2c\	.	.	.	2g\	Qui
!	!	!LO:TX:t=P:problem=kreska pseudotaktowa	!	!LO:TX:t=P:problem=kreska pseudotaktowa	!	!	!	!	!
2B-\	pec-	1D	-di	1d	-i	.	.	2g\	tol-
2A\	-ca-	.	.	.	.	.	.	2f/	.
=14-	=14-	=14-	=14-	=14-	=14-	=14-	=14-	=14-	=14-
!	!	!LO:TX:t=P:problem=kreska pseudotaktowa	!	!	!	!	!	!LO:TX:t=P:problem=kreska pseudotaktowa	!
4B-\	-ta	1re	.	2r	.	0ryy	.	1g	-lis
4A\	.	.	.	.	.	.	.	.	.
4G\	.	.	.	2d\	qui	.	.	.	.
!LO:TX:t=P:problem=kreska pseudotaktowa	!	!	!	!	!	!	!	!	!
4F\	.	.	.	.	.	.	.	.	.
!LO:LB:g=original	!	!LO:LB:g=original	!	!	!	!	!	!	!
2G\	.	2r	.	2d\	tol-	.	.	1b-	pec-
!	!	!	!	!LO:TX:t=P:problem=kreska pseudotaktowa	!	!	!	!	!
2G\	pec-	2d\	Qui	2d\	-lis	.	.	.	.
!	!	!	!	!LO:LB:g=original	!	!	!	!	!
=15-	=15-	=15-	=15-	=15-	=15-	=15-	=15-	=15-	=15-
4F\	-ca-	2d\	tol-	2f\	pec-	0ryy	.	1.a	-ca-
4D\	.	.	.	.	.	.	.	.	.
2A\	.	2c\	-lis	2e\	.	.	.	.	.
2D\	-ta	4d\	pec-	4f\	-ca-	.	.	.	.
.	.	4c\	.	4e\	.	.	.	.	.
1G\	mun-	4B-\	.	4d\	.	.	.	4g/	.
.	.	4A\	.	4c\	.	.	.	4f/	.
=16-	=16-	=16-	=16-	=16-	=16-	=16-	=16-	=16-	=16-
.	.	2G/	-ca-	2B-/	-ta	0ryy	.	2e/	-ta
2F\	.	2.A/	-ta	2.c/	mun-	.	.	2f/	mun-
!	!	!	!	!	!	!	!	!LO:TX:t=P:problem=kreska pseudotaktowa	!
!	!	!	!	!	!	!	!	!LO:SIC:v:t=custos d	!
1G	.	.	.	.	.	.	.	1d	-di
.	.	4G/	.	4B-/	.	.	.	.	.
.	.	1G/	mun-	4B-/	.	.	.	.	.
.	.	.	.	8A/L	.	.	.	.	.
.	.	.	.	8G/J	.	.	.	.	.
!	!	!	!	!	!	!	!	!LO:PB:g=original	!
=17-	=17-	=17-	=17-	=17-	=17-	=17-	=17-	=17-	=17-
!LO:TX:t=P:problem=kreska pseudotaktowa	!	!	!	!	!	!	!	!	!
1D	-di	.	.	1A	.	0ryy	.	2rcc	.
.	.	2F/	.	.	.	.	.	2dd\	mi-
!	!	!LO:TX:t=P:problem=kreska pseudotaktowa	!	!	!	!	!	!	!
2rC	.	1G	-di	2B-,/	-di	.	.	2dd\	-ſe-
!	!	!	!	!	!	!	!	!LO:TX:t=P:problem=kreska pseudotaktowa	!
2BB-/	mi-	.	.	2d\	mi-	.	.	2dd\	-re-
=18-	=18-	=18-	=18-	=18-	=18-	=18-	=18-	=18-	=18-
2C/	-ſe-	2rF	.	2e\	-ſe-	0ryy	.	2cc\	-re
!	!	!	!	!LO:TX:t=P:problem=kreska pseudotaktowa	!	!	!	!	!
2D\	-re-	2F/	mi-	2d\	-re-	.	.	1b-\	.
2E-X\	-re	1G	-ſe-	2B-/	-re	.	.	.	.
!LO:TX:t=P:problem=kreska pseudotaktowa	!	!	!	!	!	!	!	!	!
2E-\	no-	.	.	2c\	no-	.	.	4a\	no-
!	!	!	!	!	!	!	!	!LO:TX:t=P:problem=kreska pseudotaktowa	!
.	.	.	.	.	.	.	.	4g\	.
=19-	=19-	=19-	=19-	=19-	=19-	=19-	=19-	=19-	=19-
2D/	.	1B-	-re-	2d\	-bis	0ryy	.	2.f/	.
2.BB-/	.	.	.	4r	.	.	.	.	.
!	!	!	!	!LO:TX:t=P:problem=kreska pseudotaktowa	!	!	!	!	!
.	.	.	.	4d\	mi-	.	.	8g/L	.
.	.	.	.	.	.	.	.	8a/J	.
!	!	!LO:TX:t=P:problem=kreska pseudotaktowa	!	!	!	!	!	!	!
.	.	1F	-re	2d\	-ſe-	.	.	2b-\	.
4C/	.	.	.	.	.	.	.	.	.
4D/	.	.	.	2d\	-re-	.	.	1a\	.
4Eny/	.	.	.	.	.	.	.	.	.
=20-	=20-	=20-	=20-	=20-	=20-	=20-	=20-	=20-	=20-
2F\	.	2r	.	2c/	-re	0ryy	.	.	.
2G\	.	2d\	mi-	1B-/	no-	.	.	1g\	.
!LO:TX:t=P:problem=kreska pseudotaktowa	!	!	!	!	!	!	!	!	!
1D	-bis	2d\	-ſe-	.	.	.	.	.	.
!	!	!LO:TX:t=P:problem=kreska pseudotaktowa	!	!	!	!	!	!	!
.	.	2d\	-re-	4A/	.	.	.	4f/	.
!	!	!	!	!	!	!	!	!LO:TX:t=P:problem=kreska pseudotaktowa	!
.	.	.	.	4G/	.	.	.	4e/	.
=21-	=21-	=21-	=21-	=21-	=21-	=21-	=21-	=21-	=21-
2r	.	2c\	-re	2A/	.	0ryy	.	2f/	.
*	*ij	*	*	*	*	*	*	*	*
!	!	!	!	!LO:TX:t=P:problem=kreska pseudotaktowa	!	!	!	!	!
2G\	mi-	1B-\	no-	2G/	-bis	.	.	2g/	.
!	!	!	!	!	!	!	!	!LO:TX:t=P:problem=kreska pseudotaktowa	!
2G\	-se-	.	.	2rA	.	.	.	1d	-bis
*	*	*	*	*	*ij	*	*	*	*
2G\	-re-	4A/	.	2d\	mi-	.	.	.	.
.	.	4G/	.	.	.	.	.	.	.
=22-	=22-	=22-	=22-	=22-	=22-	=22-	=22-	=22-	=22-
0F	-re	2A/	.	2d\	-se-	0ryy	.	2r	.
!	!	!LO:TX:t=P:problem=kreska pseudotaktowa	!	!	!	!	!	!	!
.	.	2D/	-bis	2d\	-re-	.	.	2a\	mi-
.	.	1re	.	1c	-re	.	.	2a\	-ſe-
.	.	.	.	.	.	.	.	2a\	-re-
=23-	=23-	=23-	=23-	=23-	=23-	=23-	=23-	=23-	=23-
!	!	!	!	!	!	!	!	!LO:TX:t=P:problem=kreska pseudotaktowa	!
1G	no-	2r	.	1B-	no-	0ryy	.	1g	-re
*	*	*	*ij	*	*	*	*	*	*
.	.	2d\	mi-	.	.	.	.	.	.
!LO:TX:t=P:problem=kreska pseudotaktowa	!	!	!	!LO:TX:t=P:problem=kreska pseudotaktowa	!	!	!	!	!
1D	-bis	2d\	-se-	0A	-bis	.	.	1f	.
*	*Xij	*	*	*	*Xij	*	*	*	*
!	!	!LO:TX:t=P:problem=kreska pseudotaktowa	!	!	!	!	!	!	!
.	.	2d\	-re-	.	.	.	.	.	.
=24-	=24-	=24-	=24-	=24-	=24-	=24-	=24-	=24-	=24-
1rA	.	1.c	-re	.	.	0ryy	.	2.e/	no-
.	.	.	.	.	.	.	.	4d/	.
2r	.	.	.	1r	.	.	.	4e/	.
.	.	.	.	.	.	.	.	4f/	.
2G\	mi-	4B-\	.	.	.	.	.	2.g/	.
.	.	4A\	.	.	.	.	.	.	.
=25-	=25-	=25-	=25-	=25-	=25-	=25-	=25-	=25-	=25-
2G\	-ſe-	2B-\	.	2r	.	0ryy	.	.	.
.	.	.	.	.	.	.	.	4f/	.
!LO:TX:t=P:problem=kreska pseudotaktowa	!	!	!	!	!	!	!	!	!
2G\	-re-	2B-\	no-	2d\	mi-	.	.	4d/	.
!	!	!	!	!	!	!	!	!LO:TX:t=P:problem=kreska pseudotaktowa	!
.	.	.	.	.	.	.	.	4e/	.
!	!	!LO:TX:t=P:problem=kreska pseudotaktowa	!	!	!	!	!	!	!
2F\	-re	1A	-bis	2d\	-ſe-	.	.	4f/	.
*	*	*	*Xij	*	*	*	*	*	*
.	.	.	.	.	.	.	.	4g/	.
4D\	.	.	.	2d\	-re-	.	.	2.a\	.
4E\	.	.	.	.	.	.	.	.	.
=26-	=26-	=26-	=26-	=26-	=26-	=26-	=26-	=26-	=26-
!	!	!	!	!LO:TX:t=P:problem=kreska pseudotaktowa	!	!	!	!	!
4F\	.	2r	.	1c	-re	0ryy	.	.	.
4G\	.	.	.	.	.	.	.	4b-\	.
2.A\	.	2c\	mi-	.	.	.	.	2.cc\	.
.	.	.	.	.	.	.	.	.	.
.	.	2c\	-ſe-	2.f\	no-	.	.	.	.
4G\	.	.	.	.	.	.	.	4b-\	.
!LO:TX:t=P:problem=kreska pseudotaktowa	!	!	!	!	!	!	!	!	!
2F\	.	2c\	-re-	.	.	.	.	1a\	.
.	.	.	.	4e\	.	.	.	.	.
!LO:LB:g=original	!	!	!	!	!	!	!	!	!
=27-	=27-	=27-	=27-	=27-	=27-	=27-	=27-	=27-	=27-
2G\	no-	2B-\	-re	2d\	.	0ryy	.	.	.
2E\	.	4A/	.	2c\	.	.	.	1g\	.
.	.	4G/	.	.	.	.	.	.	.
1D	.	1A	no-	1d	.	.	.	.	.
.	.	.	.	.	.	.	.	2f#X/	.
=28-	=28-	=28-	=28-	=28-	=28-	=28-	=28-	=28-	=28-
0GGl;	-bis.	0Bnl;	-bis.	0dl;	-bis.	0ryy	.	0gl;	-bis.
.	.	.	.	.	.	.	.	.	.
!	!	!LO:LB:g=original	!	!LO:LB:g=original	!	!	!	!LO:LB:g=original	!
=29||	=29||	=29||	=29||	=29||	=29||	=29||	=29||	=29||	=29||
*M2/1	*	*M2/1	*	*M2/1	*	*M2/1	*	*M2/1	*
*met(C|)	*	*met(C|)	*	*met(C|)	*	*met(C|)	*	*met(C|)	*
!LO:TX:t=à 5 Voc. \n2b(us) Cantis.:problem=adnotacja na marginesie	!	!	!	!	!	!LO:TX:a:B:t=2do.	!	!LO:TX:a:B:t=1mo.	!
!	!	!	!	!	!	!LO:TX:t=P:problem=kreska pseudotaktowa	!	!	!
00r	.	1re	.	2.G/	A-	1rdd	.	0r	.
.	.	.	.	4A/	.	.	.	.	.
!	!	!	!	!	!	!LO:TX:t=P:problem=A wielkie przed kluczem	!	!	!
.	.	2rG	.	4B-/	.	2.d/	A-	.	.
.	.	.	.	4c/	.	.	.	.	.
.	.	2.D/	A-	1d\	.	.	.	.	.
.	.	.	.	.	.	4e/	.	.	.
=30-	=30-	=30-	=30-	=30-	=30-	=30-	=30-	=30-	=30-
!	!	!	!	!	!	!	!	!LO:TX:t=P:problem=kreska pseudotaktowa	!
.	.	.	.	.	.	4f/	.	1r	.
.	.	4E/	.	.	.	4g/	.	.	.
*	*	*	*	*	*	*2\right	*	*	*
!	!	!	!	!	!	!LO:TX:t=P:problem=kreska pseudotaktowa	!	!	!
.	.	4F/	.	1c\	-gn(us)	2a\	.	.	.
.	.	4G/	.	.	.	.	.	.	.
.	.	2A\	.	.	.	2f/	-gnus	2rf	.
.	.	2G/	-gnus	2.B-/	De-	2.g/	De-	2.d/	A-
=31-	=31-	=31-	=31-	=31-	=31-	=31-	=31-	=31-	=31-
!LO:TX:t=P:problem=kreska pseudotaktowa	!	!	!	!	!	!	!	!	!
0r	.	1B-	De-	.	.	.	.	.	.
.	.	.	.	4A/	.	4f/	.	4e/	.
.	.	.	.	1d\	.	2d/	.	4f/	.
!	!	!	!	!	!	!	!	!LO:TX:t=P:problem=kreska pseudotaktowa	!
.	.	.	.	.	.	.	.	4g/	.
!	!	!LO:TX:t=P:problem=kreska pseudotaktowa	!	!	!	!	!	!	!
.	.	1A	-i	.	.	2e/	.	2a\	.
.	.	.	.	2c\	.	2f/	.	2a\	-gn(us)
=32-	=32-	=32-	=32-	=32-	=32-	=32-	=32-	=32-	=32-
!	!	!	!	!LO:TX:t=P:problem=kreska pseudotaktowa	!	!	!	!	!
2.GG/	A-	2rG	.	1d	-i	1g	.	1.b-	De-
.	.	2.D/	A-	.	.	.	.	.	.
4AA/	.	.	.	.	.	.	.	.	.
!	!	!	!	!	!	!LO:TX:t=P:problem=kreska pseudotaktowa	!	!	!
4BB-/	.	.	.	2r	.	1f	-i	.	.
4C/	.	4E/	.	.	.	.	.	.	.
*	*	*	*	*	*ij	*	*	*	*
1D\	.	4F/	.	1d\	A-	.	.	4a/	.
!	!	!	!	!	!	!	!	!LO:TX:t=P:problem=kreska pseudotaktowa	!
.	.	4G/	.	.	.	.	.	4g/	.
=33-	=33-	=33-	=33-	=33-	=33-	=33-	=33-	=33-	=33-
.	.	4A\	.	.	.	0r	.	4f/	.
.	.	4B-\	.	.	.	.	.	4g/	.
2C/	-gnus	1c\	.	1e-X\	-gnus	.	.	2.a\	.
1E	De-	.	.	.	.	.	.	.	.
.	.	.	.	.	.	.	.	4g/	.
.	.	2G/	-gn(us)	2c\	De-	.	.	1g\	.
=34-	=34-	=34-	=34-	=34-	=34-	=34-	=34-	=34-	=34-
!LO:TX:t=P:problem=kreska pseudotaktowa	!	!	!	!LO:TX:t=P:problem=kreska pseudotaktowa	!	!	!	!	!
0.D	-i	1B-	De-	1d	-i	2rd	.	.	.
*	*	*	*	*	*Xij	*	*	*	*
.	.	.	.	.	.	2.d/	A-	4f/	.
.	.	.	.	.	.	.	.	4e/	.
!	!	!LO:TX:t=P:problem=kreska pseudotaktowa	!	!	!	!	!	!	!
.	.	1A	-i	2rA	.	.	.	2f,/	-i
.	.	.	.	.	.	4e/	.	.	.
.	.	.	.	1A/	A-	4f/	.	2.d/	a-
.	.	.	.	.	.	4g/	.	.	.
=35-	=35-	=35-	=35-	=35-	=35-	=35-	=35-	=35-	=35-
.	.	2rG	.	.	.	2a\	.	.	.
.	.	.	.	.	.	.	.	4e/	.
*	*	*	*ij	*	*	*	*	*	*
!	!	!	!	!	!	!LO:TX:t=P:problem=kreska pseudotaktowa	!	!	!
.	.	2.D/	A-	2.d\	-gnus	2a\	-gnus	4f/	.
!	!	!	!	!	!	!	!	!LO:TX:t=P:problem=kreska pseudotaktowa	!
.	.	.	.	.	.	.	.	4g/	.
!	!	!	!	!	!	!LO:LB:g=original	!	!	!
1rE	.	.	.	.	.	2.f/	De-	2a\	.
.	.	4E/	.	4c/	.	.	.	.	.
.	.	4F/	.	4A/	.	.	.	1a\	.
!	!	!	!	!LO:TX:t=P:problem=kreska pseudotaktowa	!	!	!	!	!
.	.	4G/	.	4B-/	.	4e/	.	.	.
=36-	=36-	=36-	=36-	=36-	=36-	=36-	=36-	=36-	=36-
2rAA	.	2A\	.	2c\	De-	2f/	.	.	.
2.GG/	A-	2G/	-gn(us)	2d\	.	2g\	.	2.b-\	.
!	!	!	!	!LO:TX:t=P:problem=kreska pseudotaktowa	!	!	!	!	!
.	.	1B-	De-	1G	-i	2d,/	-i	.	.
4AA/	.	.	.	.	.	.	.	4a\	.
4BB-/	.	.	.	.	.	2.dd\	A-	1g\	-gnus
!LO:TX:t=P:problem=kreska pseudotaktowa	!	!	!	!	!	!	!	!	!
4C/	.	.	.	.	.	.	.	.	.
=37-	=37-	=37-	=37-	=37-	=37-	=37-	=37-	=37-	=37-
!	!	!LO:TX:t=P:problem=kreska pseudotaktowa	!	!	!	!	!	!	!
1D	.	1A	-i	2rA	.	.	.	.	.
.	.	.	.	.	.	4cc\	.	.	.
*	*	*	*Xij	*	*ij	*	*	*	*
!	!	!	!	!	!	!LO:TX:t=P:problem=kreska pseudotaktowa	!	!	!
.	.	.	.	1d\	A-	2a\	.	2f/	De-
2GG/	-gnus	1re	.	.	.	2b-\	.	2g/	.
2AA/	.	.	.	2c\	-gnus	2.a\	-gnus	2e/	.
=38-	=38-	=38-	=38-	=38-	=38-	=38-	=38-	=38-	=38-
*	*	*	*	*lig	*	*	*	*	*
!	!	!	!	!	!	!	!	!LO:TX:t=P:problem=kreska pseudotaktowa	!
2.BB-/	De-	2r	.	1B-	De-	.	.	1d	-i
.	.	.	.	.	.	4g/	.	.	.
.	.	2d\	Qui	.	.	1g\	De-	.	.
4C/	.	.	.	.	.	.	.	.	.
!LO:TX:t=P:problem=kreska pseudotaktowa	!	!	!	!	!	!	!	!	!
1D	.	2d\	tol-	1A	.	.	.	2r	.
.	.	2d\	-lis	.	.	2f/	.	2dd\	Qui
*	*	*	*	*Xlig	*	*	*	*	*
=39-	=39-	=39-	=39-	=39-	=39-	=39-	=39-	=39-	=39-
1GG	-i.	2B-\	pec-	2G,/	-i	2g\	.	2dd\	tol-
*	*	*	*	*	*Xij	*	*	*	*
!	!	!	!	!LO:TX:t=P:problem=kreska pseudotaktowa	!	!	!	!	!
.	.	2B-\	-ca-	2g\	qui	1b-\	.	2dd\	-lis
!LO:TX:t=P:problem=kreska pseudotaktowa	!	!	!	!	!	!	!	!	!
0r	.	1e	.	2g\	tol-	.	.	2b-\	pec-
!	!	!	!	!	!	!	!	!LO:TX:t=P:problem=kreska pseudotaktowa	!
.	.	.	.	2g\	-lis	4a\	.	2cc\	.
.	.	.	.	.	.	4g\	.	.	.
=40-	=40-	=40-	=40-	=40-	=40-	=40-	=40-	=40-	=40-
!	!	!	!	!	!	!LO:TX:t=P:problem=kreska pseudotaktowa	!	!	!
.	.	1d	-ta	2f\	pec-	1a	-i,	2.dd\	-ca-
!	!	!	!	!LO:TX:t=P:problem=kreska pseudotaktowa	!	!	!	!	!
.	.	.	.	2f\	-ca-	.	.	.	.
.	.	.	.	.	.	.	.	4cc\	.
2r	.	2.G/	mun-	2g\	-ta	0r	.	4b-\	.
.	.	.	.	.	.	.	.	4a\	.
*	*	*	*	*	*ij	*	*	*	*
2G\	Qui	.	.	2g\	pec-	.	.	1b-\	-ta
.	.	4A/	.	.	.	.	.	.	.
=41-	=41-	=41-	=41-	=41-	=41-	=41-	=41-	=41-	=41-
2G\	tol-	4B-\	.	2.d\	-ca-	.	.	.	.
.	.	4c\	.	.	.	.	.	.	.
2G\	-lis	1d\	.	.	.	.	.	4a\	mun-
.	.	.	.	4eny\	.	.	.	4g\	.
!	!	!	!	!	!	!LO:TX:t=P:problem=kreska pseudotaktowa	!	!	!
2F\	pec-	.	.	4f\	.	1r	.	1a	.
.	.	.	.	4g\	.	.	.	.	.
!LO:TX:t=P:problem=kreska pseudotaktowa	!	!	!	!LO:TX:t=P:problem=kreska pseudotaktowa	!	!	!	!	!
2F\	-ca-	2.c\	.	2f\	-ta	.	.	.	.
*	*	*	*	*	*Xij	*	*	*	*
!	!	!	!	!LO:LB:g=original	!	!	!	!	!
=42-	=42-	=42-	=42-	=42-	=42-	=42-	=42-	=42-	=42-
!	!	!	!	!	!	!	!	!LO:TX:t=P:problem=kreska pseudotaktowa	!
1G	.	.	.	2e\	mun-	2r	.	1g	-di
.	.	4B-\	.	.	.	.	.	.	.
.	.	1B-\	.	1d\	.	2g\	Qui	.	.
!	!	!	!	!	!	!	!	!LO:LB:g=original	!
!	!	!	!	!	!	!	!	!LO:TX:t=P:problem=kreska pseudotaktowa	!
1E	-ta	.	.	.	.	2g\	tol-	1rdd	.
!	!	!	!	!	!	!LO:TX:t=P:problem=kreska pseudotaktowa	!	!	!
.	.	4A/	.	2c\	.	2g\	-lis	.	.
.	.	4G/	.	.	.	.	.	.	.
=43-	=43-	=43-	=43-	=43-	=43-	=43-	=43-	=43-	=43-
!	!	!	!	!LO:TX:t=P:problem=kreska pseudotaktowa	!	!	!	!	!
2.D/	mun-	1A	.	0d	-di	2f/	pec-	2rcc	.
.	.	.	.	.	.	2f/	-ca-	2dd\	Qui
4C/	.	.	.	.	.	.	.	.	.
!	!	!LO:TX:t=P:problem=kreska pseudotaktowa	!	!	!	!	!	!	!
2BB-/	.	0G	-di	.	.	1g,	-ta	2dd\	tol-
2GG/	.	.	.	.	.	.	.	2dd\	-lis
=44-	=44-	=44-	=44-	=44-	=44-	=44-	=44-	=44-	=44-
1C	.	.	.	2r	.	1e	mun-	2cc\	pec-
.	.	.	.	2g\	qui	.	.	2cc\	-ca-
!LO:TX:t=P:problem=kreska pseudotaktowa	!	!LO:LB:g=original	!	!	!	!	!	!	!
0GG	-di.	2rG	.	2g\	tol-	2.d/	.	2b-\	-ta
*	*	*	*ij	*	*	*	*	*	*
!	!	!	!	!LO:TX:t=P:problem=kreska pseudotaktowa	!	!	!	!	!
.	.	2G/	qui	2g\	-lis	.	.	4g/	pec-
!	!	!	!	!	!	!	!	!LO:TX:t=P:problem=kreska pseudotaktowa	!
.	.	.	.	.	.	8e/L	.	4a/	.
.	.	.	.	.	.	8f/J	.	.	.
=45-	=45-	=45-	=45-	=45-	=45-	=45-	=45-	=45-	=45-
!	!	!	!	!	!	!LO:TX:t=P:problem=kreska pseudotaktowa	!	!	!
.	.	2G/	tol-	2d\	pec-	0g	-di	4b-\	.
.	.	.	.	.	.	.	.	4cc\	.
!	!	!LO:TX:t=P:problem=kreska pseudotaktowa	!	!	!	!	!	!	!
.	.	2G/	-lis	2d\	-ca-	.	.	4dd\	.
.	.	.	.	.	.	.	.	8cc\L	.
.	.	.	.	.	.	.	.	8b-\J	.
0r	.	2C/	pec-	2e\	-ta	.	.	2cc\	-ca-
.	.	2E-X/	-ca-	1g\	mun-	.	.	4b-\	-ta
.	.	.	.	.	.	.	.	8a\L	.
.	.	.	.	.	.	.	.	8g\J	.
=46-	=46-	=46-	=46-	=46-	=46-	=46-	=46-	=46-	=46-
*	*	*	*	*	*	*	*ij	*lig	*
.	.	2D/	-ta	.	.	2rcc	.	1a	mun-
!	!	!	!	!LO:TX:t=P:problem=kreska pseudotaktowa	!	!	!	!	!
.	.	2D/	mun-	2f\	.	2dd\	Qui	.	.
!	!	!LO:TX:t=P:problem=kreska pseudotaktowa	!	!	!	!	!	!	!
2r	.	1G	-di	2g\	.	2dd\	tol-	1b-	.
2G\	Qui	.	.	2.d\	.	2dd\	-lis	.	.
*	*	*	*Xij	*	*	*	*	*Xlig	*
=47-	=47-	=47-	=47-	=47-	=47-	=47-	=47-	=47-	=47-
!	!	!	!	!	!	!	!	!LO:TX:t=P:problem=kreska pseudotaktowa	!
2G\	tol-	2rG	.	.	.	2b-\	pec-	0g	-di
.	.	.	.	8c/L	.	.	.	.	.
.	.	.	.	8B-/J	.	.	.	.	.
!	!	!	!	!	!	!LO:TX:t=P:problem=kreska pseudotaktowa	!	!	!
2G\	-lis	2G/	qui	4B-/	.	2dd\	-ca-	.	.
.	.	.	.	8c/L	.	.	.	.	.
.	.	.	.	8d/J	.	.	.	.	.
2C/	pec-	2G/	tol-	2e\	.	4cc\	.	.	.
.	.	.	.	.	.	4b-\	.	.	.
!LO:TX:t=P:problem=kreska pseudotaktowa	!	!	!	!	!	!	!	!	!
2E-X\	-ca-	2G/	-lis	2c\	.	8cc\L	-ta	.	.
.	.	.	.	.	.	8b-\	.	.	.
.	.	.	.	.	.	8a\	.	.	.
.	.	.	.	.	.	8g\J	.	.	.
!LO:LB:g=original	!	!	!	!	!	!	!	!	!
=48-	=48-	=48-	=48-	=48-	=48-	=48-	=48-	=48-	=48-
!	!	!	!	!LO:TX:t=P:problem=kreska pseudotaktowa	!	!	!	!	!
2D,/	-ta	2A\	pec-	0d	-di	2f/	mun-	2rcc	.
*	*	*	*	*	*	*	*	*	*ij
4GG/	pec-	1B-\	-ca-	.	.	2g/	.	2dd\	Qui
4AA/	.	.	.	.	.	.	.	.	.
!	!	!	!	!	!	!LO:TX:t=P:problem=kreska pseudotaktowa	!	!	!
4BB-/	.	.	.	.	.	0f	-di	2dd\	tol-
*	*	*	*	*	*	*	*Xij	*	*
4C/	.	.	.	.	.	.	.	.	.
4D/	-ca-	1A\	.	.	.	.	.	2dd\	-lis
4Eny/	.	.	.	.	.	.	.	.	.
=49-	=49-	=49-	=49-	=49-	=49-	=49-	=49-	=49-	=49-
4F\	.	.	.	1rg	.	.	.	2cc\	pec-
4G\	.	.	.	.	.	.	.	.	.
2.A\	.	2F/	-ta	.	.	.	.	2cc\	-ca-
!	!	!	!	!	!	!LO:TX:t=P:problem=kreska pseudotaktowa	!	!	!
.	.	1G	mun-	2r	.	1r	.	1b-	-ta
4G\	.	.	.	.	.	.	.	.	.
1G\	.	.	.	1d\	Do-	.	.	.	.
!	!	!	!	!	!	!LO:LB:g=original	!	!	!
=50-	=50-	=50-	=50-	=50-	=50-	=50-	=50-	=50-	=50-
!	!	!LO:TX:t=P:problem=kreska pseudotaktowa	!	!	!	!	!	!	!
.	.	1D	-di	.	.	2rcc	.	1a	mun-
2F,\	-ta	.	.	2d\	-na	2dd\	Do-	.	.
!	!	!	!	!	!	!	!	!LO:TX:t=P:problem=kreska pseudotaktowa	!
2G\	mun-	1r	.	2B-/	no-	2dd\	-na	0g	-di
*	*	*	*	*	*	*	*	*	*Xij
2C/	.	.	.	2e\	-bis	2cc\	no-	.	.
=51-	=51-	=51-	=51-	=51-	=51-	=51-	=51-	=51-	=51-
1G	.	2r	.	0d	pa-	2.b-\	-bis	.	.
.	.	2B-\	Do-	.	.	.	.	.	.
.	.	.	.	.	.	8a\L	.	.	.
.	.	.	.	.	.	8g\J	.	.	.
!LO:TX:t=P:problem=kreska pseudotaktowa	!	!	!	!	!	!	!	!	!
1D	-di	2B-\	-na	.	.	2f/	.	0r	.
!	!	!	!	!	!	!LO:TX:t=P:problem=kreska pseudotaktowa	!	!	!
.	.	2A\	no-	.	.	2f/	pa-	.	.
=52-	=52-	=52-	=52-	=52-	=52-	=52-	=52-	=52-	=52-
2rG	.	2G/	-bis	2B-,/	-cem	4g/	.	.	.
.	.	.	.	.	.	4f/	.	.	.
*	*	*	*	*	*ij	*	*	*	*
2B-\	Do-	2G/	pa-	2d\	do-	4d/	.	.	.
.	.	.	.	.	.	4e/	.	.	.
!	!	!LO:TX:t=P:problem=kreska pseudotaktowa	!	!	!	!	!	!LO:TX:t=P:problem=kreska pseudotaktowa	!
2B-,\	-na	1F	-cem	2d\	-na	4f/	.	1r	.
.	.	.	.	.	.	4g/	.	.	.
!LO:TX:t=P:problem=kreska pseudotaktowa	!	!	!	!	!	!	!	!	!
2A\	no-	.	.	2c/	no-	2a\	.	.	.
=53-	=53-	=53-	=53-	=53-	=53-	=53-	=53-	=53-	=53-
!	!	!	!	!	!	!LO:TX:t=P:problem=kreska pseudotaktowa	!	!	!
2.G\	.	2r	.	1B-	-bis	1d	-cem	2r	.
*	*	*	*ij	*	*	*	*	*	*
.	.	2d\	Do-	.	.	.	.	2b-\	Do-
8F\L	.	.	.	.	.	.	.	.	.
8E\J	.	.	.	.	.	.	.	.	.
2D\	-bis	2d\	-na	1f	pa-	1rdd	.	2b-\	-na
2F\	pa-	2c\	no-	.	.	.	.	2a\	no-
=54-	=54-	=54-	=54-	=54-	=54-	=54-	=54-	=54-	=54-
!	!	!	!	!LO:TX:t=P:problem=kreska pseudotaktowa	!	!	!	!	!
1G	.	4B-\	-bis	1d	-cem	2r	.	2g\	-bis
.	.	4A\	.	.	.	.	.	.	.
*	*	*	*	*	*Xij	*	*ij	*	*
!	!	!	!	!	!	!	!	!LO:TX:t=P:problem=kreska pseudotaktowa	!
.	.	4B-\	.	.	.	2b-\	Do-	2g\	pa-
.	.	4c\	.	.	.	.	.	.	.
!LO:TX:t=P:problem=kreska pseudotaktowa	!	!	!	!	!	!	!	!LO:TX:t=P:problem=kreska pseudotaktowa	!
1D	-cem	2.d\	pa-	2r	.	2b-\	-na	1f	-cem
!	!	!	!	!LO:TX:t=P:problem=kreska pseudotaktowa	!	!	!	!	!
.	.	.	.	2d\	do-	2a\	no-	.	.
.	.	4c\	.	.	.	.	.	.	.
=55-	=55-	=55-	=55-	=55-	=55-	=55-	=55-	=55-	=55-
1rA	.	2B-\	.	2d\	-na	2g/	-bis	0r	.
.	.	2A\	.	2c\	no-	2.f/	pa-	.	.
*	*	*lig	*	*	*	*	*	*	*
2rG	.	1G	.	4B-/	.	.	.	.	.
.	.	.	.	4A/	.	8e/L	.	.	.
.	.	.	.	.	.	8d/J	.	.	.
*	*ij	*	*	*	*	*	*	*	*
2B-\	Do-	.	.	4B-/	.	2e/	.	.	.
!	!	!	!	!LO:TX:t=P:problem=kreska pseudotaktowa	!	!	!	!	!
.	.	.	.	4c/	.	.	.	.	.
!	!	!	!	!LO:LB:g=original	!	!	!	!	!
=56-	=56-	=56-	=56-	=56-	=56-	=56-	=56-	=56-	=56-
!	!	!	!	!	!	!LO:TX:t=P:problem=kreska pseudotaktowa	!	!LO:TX:t=P:problem=kreska pseudotaktowa	!
2B-,\	-na	1F	.	2d\	.	1f	-cem	1r	.
!LO:TX:t=P:problem=kreska pseudotaktowa	!	!	!	!	!	!	!	!	!
2A\	no-	.	.	2c\	-bis	.	.	.	.
*	*	*Xlig	*	*	*	*	*Xij	*	*
!	!	!LO:TX:t=P:problem=kreska pseudotaktowa	!	!	!	!	!	!	!
2.G\	.	1B-	-cem	4d\	pa-	2rcc	.	2r	.
*	*	*	*Xij	*	*	*	*	*	*
.	.	.	.	4c\	.	.	.	.	.
.	.	.	.	4d\	.	2dd\	do-	2b-\	Do-
8F\L	.	.	.	4e\	.	.	.	.	.
8E\J	.	.	.	.	.	.	.	.	.
=57-	=57-	=57-	=57-	=57-	=57-	=57-	=57-	=57-	=57-
2D\	-bis	1re	.	2.f\	.	2dd\	-na	2b-\	-na
!LO:TX:t=P:problem=kreska pseudotaktowa	!	!	!	!	!	!	!	!	!
2F\	pa-	.	.	.	.	2cc\	no-	2a\	no-
.	.	.	.	4e\	.	.	.	.	.
!	!	!	!	!	!	!	!	!LO:TX:t=P:problem=kreska pseudotaktowa	!
2.G\	.	2r	.	2d\	.	2b-\	.	1g	-bis
.	.	2d\	do-	2G/	.	2b-\	-bis	.	.
4F\	.	.	.	.	.	.	.	.	.
=58-	=58-	=58-	=58-	=58-	=58-	=58-	=58-	=58-	=58-
4D\	.	2d\	-na	1A	.	4a\	pa-	2.f/	pa-
4E\	.	.	.	.	.	4g\	.	.	.
2F\	.	1c\	no-	.	.	4a\	.	.	.
.	.	.	.	.	.	4b-\	.	8e/L	.
.	.	.	.	.	.	.	.	8d/J	.
!	!	!	!	!LO:TX:t=P:problem=kreska pseudotaktowa	!	!	!	!	!
2C,/	-cem	.	.	1G	-cem	2cc\	.	4e/	.
*	*Xij	*	*	*	*	*	*	*	*
.	.	.	.	.	.	.	.	4f/	.
!LO:TX:t=P:problem=kreska pseudotaktowa	!	!	!	!	!	!	!	!	!
2E-X\	do-	2B-\	-bis	.	.	2g\	.	1g\	.
=59-	=59-	=59-	=59-	=59-	=59-	=59-	=59-	=59-	=59-
*	*	*	*	*	*	*lig	*	*	*
2Eny\	-na	4G/	pa-	1r	.	1b-	.	.	.
.	.	4A/	.	.	.	.	.	.	.
!	!	!	!	!	!	!	!	!LO:TX:t=P:problem=kreska pseudotaktowa	!
2D\	no-	1B-\	.	.	.	.	.	2f/	.
1C,	-bis	.	.	2r	.	1cc	.	2g\	-cem
*	*	*	*	*	*ij	*	*	*	*
!	!	!	!	!	!	!	!	!LO:TX:t=P:problem=kreska pseudotaktowa	!
!	!	!	!	!	!	!	!	!LO:SIC:v:t=custos b	!
.	.	2A\	.	2e\	do-	.	.	2r	.
*	*	*	*	*	*	*Xlig	*	*	*
!	!	!	!	!	!	!	!	!LO:LB:g=original	!
=60-	=60-	=60-	=60-	=60-	=60-	=60-	=60-	=60-	=60-
*	*	*	*	*	*	*	*	*	*ij
!	!	!LO:TX:t=P:problem=kreska pseudotaktowa	!	!	!	!LO:TX:t=P:problem=kreska pseudotaktowa	!	!	!
1BB-	pa-	1B-	-cem	2e\	-na	1f	-cem.	2b-\	Do-
.	.	.	.	2d\	no-	.	.	2b-\	-na
!	!	!LO:LB:g=original	!	!	!	!LO:TX:t=P:problem=kreska pseudotaktowa	!	!	!
2.C/	.	2rc	.	2c/	-bis	1r	.	2a\	no-
!	!	!	!	!LO:TX:t=P:problem=kreska pseudotaktowa	!	!	!	!	!
.	.	2e\	do-	2c/	pa-	.	.	2g\	-bis
4D/	.	.	.	.	.	.	.	.	.
=61-	=61-	=61-	=61-	=61-	=61-	=61-	=61-	=61-	=61-
*	*	*	*	*	*	*	*ij	*	*
2E-X\	.	2e\	-na	2B-/	-cem	2b-\	do-	2g/	pa-
!LO:TX:t=P:problem=kreska pseudotaktowa	!	!	!	!	!	!	!	!	!
2BB-/	.	2d\	no-	4r	.	2b-\	-na	2f/	-cem
*	*	*	*	*	*Xij	*	*	*	*Xij
.	.	.	.	4f\	do-	.	.	.	.
!	!	!	!	!	!	!	!	!LO:TX:t=P:problem=kreska pseudotaktowa	!
2F\	.	2c\	-bis	2f\	-na	2a\	no-	0r	.
2G\	.	1B-\	pa-	2e\	no-	2g/	-bis	.	.
=62-	=62-	=62-	=62-	=62-	=62-	=62-	=62-	=62-	=62-
2D\	.	.	.	2d\	-bis	2f#X/	pa-	.	.
!	!	!	!	!LO:TX:t=P:problem=kreska pseudotaktowa	!	!	!	!	!
2Eny\	.	4A/	.	2c\	pa-	1g\	.	.	.
.	.	4G/	.	.	.	.	.	.	.
2.D\	.	1A	.	2d,\	-cem	.	.	2r	.
*	*	*	*	*	*ij	*	*	*	*
.	.	.	.	1f\	do-	2f#/	.	2dd\	Do-
4C/	.	.	.	.	.	.	.	.	.
=63-	=63-	=63-	=63-	=63-	=63-	=63-	=63-	=63-	=63-
2BB-/	.	[0Gl;	-cem.	.	.	[0gl;	-cem	2dd\	-na
*	*	*	*	*	*	*	*Xij	*	*
!LO:TX:t=P:problem=kreska pseudotaktowa	!	!	!	!	!	!	!	!	!
2C/	.	.	.	2e\	-na	.	.	2cc\	no-
!LO:LB:g=original	!	!	!	!	!	!	!	!	!
2GG/	.	.	.	2d\	no-	.	.	2b-\	-bis
!	!	!	!	!	!	!	!	!LO:TX:t=P:problem=kreska pseudotaktowa	!
1C/	.	.	.	1e\	.	.	.	2g\	pa-
=64-	=64-	=64-	=64-	=64-	=64-	=64-	=64-	=64-	=64-
.	.	0G_	.	.	.	0g_	.	1.cc	.
4BB-/	.	.	.	4d\	-bis	.	.	.	.
4AA/	.	.	.	4c\	.	.	.	.	.
!LO:TX:b:t=O. ad M.D.Gm.	!	!	!	!	!	!	!	!	!
[1GGl;	-cem.	.	.	2d\	pa-	.	.	.	.
.	.	.	.	2e-X\	.	.	.	4b-\	.
.	.	.	.	.	.	.	.	4a\	.
=65-	=65-	=65-	=65-	=65-	=65-	=65-	=65-	=65-	=65-
0GG]	.	0G]	.	0dl;	-cem	0g]	.	0bnl;	-cem.
*	*	*	*	*	*Xij	*	*	*	*
==	==	==	==	==	==	==	==	==	==
*-	*-	*-	*-	*-	*-	*-	*-	*-	*-
!!!system-decoration: [s1,s2,s3,s4,s5]
!!!RDF**kern: l = terminal long
!!!AIN: 1 alto 1 bass 1 tenor 2 vox
!!!ENC: Marta Lawrence
!!!END: 2021-03-17
!!!ENC: Mateusz Solarz
!!!END: 2021-03-01
